X: 1
T: An Dro "\`a Doudou" ou "\`a Sylvie"
R: an dro
S: Handout at 2014 NEFFA
Z: 2015 John Chambers <jc:trillian.mit.edu>
M: 2/4
L: 1/16
K: Am
|:\
"Am"A2A2 A3B | "Am"c2"Em"Bc "Am"A3c |\
"G"B2B2 B3d | "A"c2"G"B2 "Am"A4 ::\
"Am"e2e2 e2dc |
"G"d2d2 d4 |\
"F"c2c2 c2BA | "Em"B2B2 B4 |\
"Am"e2ed "G"B3d | "F"c2"G"B2 "Am"A4 :|
